Yaru++/actions/16/media-write-cd.svg

<svg height="16" width="16" xmlns="http://www.w3.org/2000/svg"><g fill="#808080"><path d="m8 0a8 8 0 0 0 -8 8 8 8 0 0 0 8 8 8 8 0 0 0 7.5625-5.416016h-1.0625a7 7 0 0 1 -6.5 4.416016 7 7 0 0 1 -7-7 7 7 0 0 1 7-7 7 7 0 0 1 6.501953 4.4160156h1.060547a8 8 0 0 0 -7.5625-5.4160156zm-.6777344 5.0820312a3 3 0 0 0 -2.3222656 2.9179688 3 3 0 0 0 2.3222656 2.919922v-.335938-1.2480465a1.5 1.5 0 0 1 -.8222656-1.3359375 1.5 1.5 0 0 1 .8222656-1.3359375v-1.2480469z"/><path d="m7.9999992 8.5000004h3.9999998 2.031251l-1.4375 1.34375.6875.6562496 2.5-2.3124996.21875-.1875-.21875-.1875-2.5-2.3125005-.6875.65625 1.4375 1.3437505h-2.031251-3.9999998z"/></g></svg>

<?xml version="1.0" encoding="UTF-8" standalone="no"?>
<svg
   xmlns:dc="http://purl.org/dc/elements/1.1/"
   xmlns:cc="http://creativecommons.org/ns#"
   xmlns:rdf="http://www.w3.org/1999/02/22-rdf-syntax-ns#"
   xmlns:svg="http://www.w3.org/2000/svg"
   xmlns="http://www.w3.org/2000/svg"
   xmlns:sodipodi="http://sodipodi.sourceforge.net/DTD/sodipodi-0.dtd"
   xmlns:inkscape="http://www.inkscape.org/namespaces/inkscape"
   width="16"
   height="16"
   version="1.1"
   id="svg8"
   sodipodi:docname="2.svg"
   inkscape:version="0.92.3 (2405546, 2018-03-11)">
  <metadata
     id="metadata14">
    <rdf:RDF>
      <cc:Work
         rdf:about="">
        <dc:format>image/svg+xml</dc:format>
        <dc:type
           rdf:resource="http://purl.org/dc/dcmitype/StillImage" />
        <dc:title></dc:title>
      </cc:Work>
    </rdf:RDF>
  </metadata>
  <defs
     id="defs12" />
  <sodipodi:namedview
     pagecolor="#ffffff"
     bordercolor="#808080"
     borderopacity="1"
     objecttolerance="10"
     gridtolerance="10"
     guidetolerance="10"
     inkscape:pageopacity="0"
     inkscape:pageshadow="2"
     inkscape:window-width="1920"
     inkscape:window-height="1009"
     id="namedview10"
     showgrid="false"
     inkscape:zoom="14.75"
     inkscape:cx="8"
     inkscape:cy="8"
     inkscape:window-x="0"
     inkscape:window-y="34"
     inkscape:window-maximized="1"
     inkscape:current-layer="svg8" />
  <g
     transform="translate(-272,-160)"
     id="g6">
    <path
       style="fill:#808080"
       d="M 8 0 A 8 8 0 0 0 0 8 A 8 8 0 0 0 8 16 A 8 8 0 0 0 15.5625 10.583984 L 14.5 10.583984 A 7 7 0 0 1 8 15 A 7 7 0 0 1 1 8 A 7 7 0 0 1 8 1 A 7 7 0 0 1 14.501953 5.4160156 L 15.5625 5.4160156 A 8 8 0 0 0 8 0 z M 7.3222656 5.0820312 A 3 3 0 0 0 5 8 A 3 3 0 0 0 7.3222656 10.919922 L 7.3222656 10.583984 L 7.3222656 9.3359375 A 1.5 1.5 0 0 1 6.5 8 A 1.5 1.5 0 0 1 7.3222656 6.6640625 L 7.3222656 5.4160156 L 7.3222656 5.0820312 z "
       transform="translate(272,160)"
       id="path2" />
  </g>
  <path
     class="ColorScheme-Text"
     d="m 7.9999992,8.5000004 h 3.9999998 2.031251 l -1.4375,1.34375 0.6875,0.6562496 2.5,-2.3124996 0.21875,-0.1875 -0.21875,-0.1875 -2.5,-2.3125005 -0.6875,0.65625 1.4375,1.3437505 H 11.999999 7.9999992 Z"
     id="path5"
     inkscape:connector-curvature="0"
     style="color:#808080;fill:#808080"
     sodipodi:nodetypes="cccccccccccccc" />
</svg>
